imgs/AustraliaFlag.svg

<svg width="25" height="18" viewBox="0 0 25 18" fill="none" xmlns="http://www.w3.org/2000/svg">
<path d="M0.00683594 0H24.0068V18H0.00683594V0Z" fill="#000066"/>
<path d="M0.00683594 0V1.05L11.5193 9.375H12.9706V8.325L1.45809 0H0.00683594ZM12.9706 0V1.05L1.45809 9.375H0.00683594V8.325L11.5193 0H12.9706Z" fill="white"/>
<path d="M5.40684 0V9.375H7.56684V0H5.40684ZM0.00683594 3.12375V6.25125H12.9706V3.12375H0.00683594Z" fill="white"/>
<path d="M0.00683594 3.75V5.625H12.9706V3.75H0.00683594ZM5.84184 0V9.375H7.13184V0H5.83809H5.84184ZM0.00683594 9.375L4.32684 6.25125H5.29434L0.974336 9.375H0.00683594ZM0.00683594 0L4.32684 3.12375H3.36309L0.00683594 0.6975V0ZM7.68309 3.12375L12.0031 0H12.9706L8.65059 3.12375H7.68309ZM12.9706 9.375L8.65059 6.25125H9.61434L12.9706 8.6775V9.375Z" fill="#CC0000"/>
<path fill-rule="evenodd" clip-rule="evenodd" d="M11.2491 14.7187L9.61031 14.8612L9.83531 16.4887L8.70656 15.3L7.57781 16.4887L7.80281 14.8612L6.16406 14.7187L7.57781 13.8825L6.66656 12.5137L8.20406 13.095L8.70656 11.5312L9.21281 13.095L10.7503 12.5137L9.83906 13.8825L11.2491 14.7187ZM18.2541 16.2187L17.8566 15.6262L18.5241 15.8775L18.7416 15.1987L18.9591 15.8775L19.6266 15.6262L19.2328 16.2187L19.8478 16.5825L19.1353 16.6462L19.2328 17.355L18.7453 16.8337L18.2503 17.355L18.3478 16.6462L17.6353 16.5862L18.2541 16.2187ZM18.2503 5.64L17.8566 5.0475L18.5241 5.29875L18.7416 4.62L18.9591 5.29875L19.6266 5.0475L19.2328 5.64L19.8478 6.0075L19.1353 6.0675L19.2328 6.77625L18.7453 6.25875L18.2503 6.7725L18.3478 6.0675L17.6353 6.0075L18.2503 5.64ZM14.2866 9.9375L13.8928 9.345L14.5603 9.59625L14.7778 8.9175L14.9991 9.59625L15.6666 9.345L15.2691 9.9375L15.8841 10.3012L15.1716 10.365L15.2728 11.0737L14.7778 10.5525L14.2903 11.0737L14.3841 10.365L13.6716 10.305L14.2866 9.9375ZM21.7828 8.88L21.3816 8.2875L22.0491 8.53875L22.2666 7.86L22.4878 8.53875L23.1553 8.2875L22.7616 8.88L23.3728 9.24375L22.6603 9.3075L22.7578 10.0125L22.2703 9.495L21.7753 10.0125L21.8728 9.3075L21.1603 9.24375L21.7828 8.88ZM20.3316 12L19.9453 12.2437L20.0541 11.7975L19.7053 11.505L20.1591 11.4675L20.3316 11.0475L20.5078 11.4712L20.9616 11.505L20.6128 11.7975L20.7216 12.2437" fill="white"/>
</svg>

<svg width="25" height="18" fill="none" xmlns="http://www.w3.org/2000/svg"><path d="M.007 0h24v18h-24V0z" fill="#006"/><path d="M.007 0v1.05l11.512 8.325h1.452v-1.05L1.458 0H.007zM12.97 0v1.05L1.458 9.375H.007v-1.05L11.519 0h1.452z" fill="#fff"/><path d="M5.407 0v9.375h2.16V0h-2.16zm-5.4 3.124V6.25H12.97V3.124H.007z" fill="#fff"/><path d="M.007 3.75v1.875H12.97V3.75H.007zM5.842 0v9.375h1.29V0H5.838h.004zM.007 9.375l4.32-3.124h.967L.974 9.375H.007zM.007 0l4.32 3.124h-.964L.007.698V0zm7.676 3.124L12.003 0h.968L8.65 3.124h-.968zm5.288 6.251L8.65 6.251h.963l3.357 2.426v.698z" fill="#C00"/><path fill-rule="evenodd" clip-rule="evenodd" d="M11.25 14.719l-1.64.142.225 1.628L8.707 15.3l-1.13 1.189.226-1.628-1.639-.142 1.414-.836-.911-1.37 1.537.582.503-1.564.506 1.564 1.537-.581-.91 1.369 1.41.836zm7.004 1.5l-.397-.593.667.252.218-.68.217.68.668-.252-.394.593.615.363-.713.064.098.709-.488-.521-.495.521.098-.709-.713-.06.62-.367zM18.25 5.64l-.393-.592.667.25.218-.678.217.679.668-.252-.394.593.615.368-.713.06.098.708-.488-.517-.495.513.098-.705-.713-.06.615-.367zm-3.963 4.298l-.394-.593.667.251.218-.678.221.678.668-.251-.398.592.615.364-.712.064.1.709-.494-.521-.488.52.094-.708-.712-.06.615-.367zm7.496-1.058l-.401-.593.667.252.218-.679.22.679.668-.252-.393.593.61.364-.712.063.098.705-.488-.517-.495.518.098-.706-.713-.063.623-.364zM20.332 12l-.387.244.11-.447-.35-.292.454-.038.173-.42.176.424.454.034-.35.292.11.447" fill="#fff"/></svg>
